X: 77
M: 6/8
L: 1/8
K: Am
cdc BA^G | A2A A2f | edc Bed | cBc A2A |\
cdc BA^G | A2A A2g | f2e d^cd | e3- e2 :|
|: e |\
g2d d2f | e2c c2e | edc TB2A | ^GAB E2e |\
g2d d2f | e2c c2e | edc BA^G | A2A A2 :|


